frontend/svgs/biz013.svg

<?xml version="1.0" encoding="UTF-8"?> <svg width="100px" height="100px" viewBox="0 0 100 100" version="1.1" xmlns="http://www.w3.org/2000/svg" xmlns:xlink="http://www.w3.org/1999/xlink"> <g id="13.-Oil" stroke="none" stroke-width="1" fill="none" fill-rule="evenodd"> <rect id="Layer-1" stroke="#C8D6E5" stroke-width="4" fill="#C8D6E5" stroke-linecap="round" stroke-linejoin="round" x="15" y="9" width="70" height="88.0733945"></rect> <rect id="Layer-2" stroke="#A4B8CE" stroke-width="4" fill="#A4B8CE" stroke-linecap="round" stroke-linejoin="round" x="60" y="2" width="16.1540014" height="7.04587156"></rect> <path d="M50.5370007,34 C51.5458698,34 52.3766098,34.7524925 52.4841328,35.7196575 C52.5837622,36.2969121 53.3121053,40.2575 55.1475088,44.0278457 C56.8705774,47.5674293 59.8570876,52.0602796 60.6164563,53.1861083 C62.1598191,55.2189958 63.0740015,57.7437572 63.0740015,60.4791903 C63.0740015,67.2041198 57.5486983,72.6557523 50.7328914,72.6557523 C50.6674744,72.6557523 50.6021762,72.6552501 50.5370007,72.6542494 C50.4718252,72.6552501 50.4065271,72.6557523 50.3411101,72.6557523 C43.5253032,72.6557523 38,67.2041198 38,60.4791903 C38,57.7437572 38.9141824,55.2189958 40.4575452,53.1861083 C41.2169138,52.0602796 44.2034241,47.5674293 45.9264927,44.0278457 C47.7618962,40.2575 48.4902392,36.2969121 48.5898687,35.7196575 C48.6973917,34.7524925 49.5281316,34 50.5370007,34 L50.5370007,34 Z" id="Layer-3" stroke="#A4B8CE" stroke-width="6" fill="#A4B8CE" stroke-linecap="round" stroke-linejoin="round"></path> <path d="M10.1003104,9.04587156 L89.3663655,9.04587156" id="Layer-4" stroke="#A4B8CE" stroke-width="4" stroke-linecap="round" stroke-linejoin="round"></path> <path d="M10.1003104,97.1192661 L89.3663655,97.1192661" id="Layer-5" stroke="#A4B8CE" stroke-width="4" stroke-linecap="round" stroke-linejoin="round"></path> <rect id="Layer-6" stroke="#A4B8CE" stroke-width="4" fill="#A4B8CE" x="15" y="9" width="70" height="9"></rect> <rect id="Layer-7" stroke="#A4B8CE" stroke-width="4" fill="#A4B8CE" x="15" y="88" width="70" height="9"></rect> </g> </svg>

<svg width="100" height="100" xmlns="http://www.w3.org/2000/svg"><g fill="none" fill-rule="evenodd"><path stroke="#C8D6E5" stroke-width="4" fill="#C8D6E5" stroke-linecap="round" stroke-linejoin="round" d="M15 9h70v88.073H15z"/><path stroke="#A4B8CE" stroke-width="4" fill="#A4B8CE" stroke-linecap="round" stroke-linejoin="round" d="M60 2h16.154v7.046H60z"/><path d="M50.537 34a1.95 1.95 0 011.947 1.72c.1.577.828 4.538 2.664 8.308 1.723 3.54 4.71 8.032 5.468 9.158a12.017 12.017 0 012.458 7.293c0 6.725-5.525 12.177-12.341 12.177-.066 0-.13 0-.196-.002l-.196.002C43.525 72.656 38 67.204 38 60.479c0-2.735.914-5.26 2.458-7.293.759-1.126 3.745-5.619 5.468-9.158 1.836-3.77 2.564-7.731 2.664-8.308A1.95 1.95 0 0150.537 34h0z" stroke="#A4B8CE" stroke-width="6" fill="#A4B8CE" stroke-linecap="round" stroke-linejoin="round"/><path d="M10.1 9.046h79.266M10.1 97.12h79.266" stroke="#A4B8CE" stroke-width="4" stroke-linecap="round" stroke-linejoin="round"/><path stroke="#A4B8CE" stroke-width="4" fill="#A4B8CE" d="M15 9h70v9H15zM15 88h70v9H15z"/></g></svg>
